svg/300/sharp/comments_disabled-fill.svg

<svg xmlns="http://www.w3.org/2000/svg" width="48" height="48" viewBox="0 -960 960 960"><path d="M841.847-52.924 634.769-260.001H100.001v-527.075q0-1.924.193-3.655.192-1.73.577-3.269l-50.154-50.154 32.615-32.614L874.46-85.538l-32.614 32.614Zm18.152-139.616L642.538-410.001h67.461v-45.383H597.155l-81.924-81.924h194.768v-45.384H469.847l-81.924-81.924h322.076v-45.383H342.54l-150-150h667.459v667.459ZM250.001-410.001H484.77l-45.384-45.383H250.001v45.383Zm0-127.307h107.462l-45.384-45.384h-62.078v45.384Z"/></svg>

<svg xmlns="http://www.w3.org/2000/svg" width="48" height="48" viewBox="0 -960 960 960"><path d="M841.85-52.92 634.77-260H100v-527.08q0-1.92.19-3.65.2-1.73.58-3.27l-50.15-50.15 32.61-32.62L874.46-85.54l-32.61 32.62ZM860-192.54 642.54-410H710v-45.38H597.15l-81.92-81.93H710v-45.38H469.85l-81.93-81.93H710V-710H342.54l-150-150H860v667.46ZM250-410h234.77l-45.38-45.38H250V-410Zm0-127.31h107.46l-45.38-45.38H250v45.38Z"/></svg>
